X:1
T:Partita V Gigue
T:BWV 829
T:J. S. Bach
%%score { ( 1 3 ) | 2 }
L:1/8
M:6/8
K:G
V:1 treble nm="Harp"
V:3 treble 
V:2 bass 
V:1
 d | e>cA/F/ dG z | z3 z z g | b>ge/^c/ ad z | g>e^c/A/ f/e/f/a/d/f/ | g/f/g/b/e/g/ a/g/a/c'/f/a/ | %6
 b/a/c'/b/a/g/ f/e/f/g/e/f/ | g2 c' f g2- | gfa def | g z z z3 | z3 e^f^g | a z z z3 | z3 fga- | %13
 a g2- g f2- | f e2- edf- | fe z z z e- | ed z z z d- | dc z z z c- | cBd- d^ca- | ag z ^cAd- | %20
 d^c z d3- | d/c/d/e/B/d/ c3- | c/B/c/d/A/c/ B/A/B/c/d/B/ | e>cA/F/ dG z | c>AF/D/ BE z | %25
 A>FD/B,/ G^C z | z/ E/F/A/D/F/ G/F/G/B/E/G/ | A/G/A/c/F/A/ B/A/B/^c/d/B/ | ^cA e2 df- | feg- gfa | %30
 b>ge/^c/ ad z | g>e^c/A/ fd=c | BeG- GF d | e>cA/F/ dG z | z3 z z g | b>ge/^c/ ad z | %36
 g>e^c/A/ f/e/f/a/d/f/ | g/f/g/b/e/g/ a/g/a/c'/f/a/ | b/a/c'/b/a/g/ f/e/f/g/e/f/ | g2 c' f g2- | %40
 gfa def | g z z z3 | z3 e^f^g | a z z z3 | z3 fga- | a g2- g f2- | f e2- edf- | fe z z z e- | %48
 ed z z z d- | dc z z z c- | cBd- d^ca- | ag z ^cAd- | d^c z d3- | d/c/d/e/B/d/ c3- | %54
 c/B/c/d/A/c/ B/A/B/c/d/B/ | e>cA/F/ dG z | c>AF/D/ BE z | A>FD/B,/ G^C z | %58
 z/ E/F/A/D/F/ G/F/G/B/E/G/ | A/G/A/c/F/A/ B/A/B/^c/d/B/ | ^cA e2 df- | feg- gfa | b>ge/^c/ ad z | %63
 g>e^c/A/ fd=c | BeG- GF z | z6 | z3 z z D | %67
[I:staff +1] G,C[I:staff -1] z z/[I:staff +1] C/B,/A,/B,/G,/ | %68
 E,/F,/G,/4F,/4G,/4F,/4G,/4F,/4E,/4F,/4 G,A,/4^G,/4A,/4G,/4A,/4G,/4F,/4G,/4 | %69
[I:staff -1] z3 z z A | DG z z/ G/F/E/F/D/ | B,/^C/D/4C/4D/4C/4D/4C/4B,/4C/4 D/E/D/C/D/B,/ | %72
 ^C/^D/E/4D/4E/4D/4E/4D/4C/4D/4 E/B/A/G/A/F/ | GA/4^G/4A/4G/4A/4G/4F/4G/4 A/e/d/c/d/B/ | %74
 c/a/g/=f/g/e/ f^GA | z/ c'/b/a/b/d/ c/b/a/^g/a/c/ | B/a/g/f/g/B/ A/g/f/e/f/a/ | %77
 ^d/e/f/4e/4f/4e/4f/4e/4d/4e/4 f/e/f/a/g/f/ | ea z z/ a/g/f/g/e/ | %79
 ^c/^d/e/4d/4e/4d/4e/4d/4c/4d/4 e/d/e/g/f/a/ | g/f/g/b/e/^g/ a/g/a/c'/f/a/ | %81
 b/a/b/d'/^g/b/ c'/b/a/g/a/e/ | =f>d'b/^g/ ea z | d>b^g/e/ cea | dg z z/ g/f/e/f/d/ | %85
 B/^c/d/4c/4d/4c/4d/4c/4B/4c/4 dc/4B/4c/4B/4c/4B/4A/4B/4 | c/d/c/B/c/A/ B/A/B/c/d | %87
 Gc z z/ c/B/A/B/G/ | E/F/G/4F/4G/4F/4G/4F/4E/4F/4 Gde | Aef Bfg | c3- c/d/c/B/c/A/ | B ^c2 dAd- | %92
 d/B/Gc FDG- | G/4F/4E/D z z/ C/D/=F/E/G/ | =F/G/F/E/F/D/ E/A/G/^F/G/E/ | F/B/A/G/A/F/ GA z | %96
 z/ D/G/B/A/F/ FG z | z6 | z3 z z D |[I:staff +1] G,C[I:staff -1] z z/[I:staff +1] C/B,/A,/B,/G,/ | %100
 E,/F,/G,/4F,/4G,/4F,/4G,/4F,/4E,/4F,/4 G,A,/4^G,/4A,/4G,/4A,/4G,/4F,/4G,/4 | %101
[I:staff -1] z3 z z A | DG z z/ G/F/E/F/D/ | B,/^C/D/4C/4D/4C/4D/4C/4B,/4C/4 D/E/D/C/D/B,/ | %104
 ^C/^D/E/4D/4E/4D/4E/4D/4C/4D/4 E/B/A/G/A/F/ | GA/4^G/4A/4G/4A/4G/4F/4G/4 A/e/d/c/d/B/ | %106
 c/a/g/=f/g/e/ f^GA | z/ c'/b/a/b/d/ c/b/a/^g/a/c/ | B/a/g/f/g/B/ A/g/f/e/f/a/ | %109
 ^d/e/f/4e/4f/4e/4f/4e/4d/4e/4 f/e/f/a/g/f/ | ea z z/ a/g/f/g/e/ | %111
 ^c/^d/e/4d/4e/4d/4e/4d/4c/4d/4 e/d/e/g/f/a/ | g/f/g/b/e/^g/ a/g/a/c'/f/a/ | %113
 b/a/b/d'/^g/b/ c'/b/a/g/a/e/ | =f>d'b/^g/ ea z | d>b^g/e/ cea | dg z z/ g/f/e/f/d/ | %117
 B/^c/d/4c/4d/4c/4d/4c/4B/4c/4 dc/4B/4c/4B/4c/4B/4A/4B/4 | c/d/c/B/c/A/ B/A/B/c/d | %119
 Gc z z/ c/B/A/B/G/ | E/F/G/4F/4G/4F/4G/4F/4E/4F/4 Gde | Aef Bfg | c3- c/d/c/B/c/A/ | B ^c2 dAd- | %124
 d/B/Gc FDG- | G/4F/4E/D z z/ C/D/=F/E/G/ | =F/G/F/E/F/D/ E/A/G/^F/G/E/ | F/B/A/G/A/F/ GA z | %128
 z/ D/G/B/A/F/ F!fermata!G z |] %129
V:2
 z | z6 | z6 | z6 | z6 | z6 | z3 z z D | E-E/C/A,/F,/ DG, z | C>A,F,/D,/ B,/A,/B,/C/B,/A,/ | %9
 G,DE A,E=F | B,=FG C/B,/C/D/C/B,/ | A,EF B,FG | ^CGA D/C/D/E/D/C/ | B,>G,E,/^C,/ A,D, z | %14
 G,>E,^C,/A,,/ F,/E,/F,/A,/D,/F,/ | ^G,/F,/G,/B,/E,/G,/ ^A,/G,/A,/^C/F,/A,/ | %16
 B,/^A,/B,/D/F,/=A,/ ^G,/F,/G,/B,/E,/G,/ | A,/^G,/A,/C/E,/=G,/ F,/E,/F,/A,/D,/F,/ | %18
 G,/F,/G,/A,/B,/G,/ A,/G,/A,/B,/^C/A,/ | D/B,/EG,- G,/E,/F,/A,/G,/F,/ | %20
 E,/A,,/A,/G,/F,/E,/ D,A,B, | E,B,,G,, E,,B,C | F,D,E, =F,E,D, | C,>A,F,/A,/ B,,>G,E,/G,/ | %24
 A,,>F,D,/F,/ G,,>E,^C,/E,/ | F,,>D,B,,/D,/ E,,>^C,A,,/C,/ | D,,A,,B,, E,,B,,C, | F,,C,D, G,,D,E, | %28
 A,,/F,/G,/A,/E,/G,/ F,/E,/F,/A,/D,/F,/ | E,/D,/E,/G,/^C,/E,/ D,/C,/D,/F,/B,,/D,/ | %30
 G,,G, z z z F,- | F,/D,/E,/G,/A,,/^C,/ D,/E,/F,/A,/D,/F,/ | G,/E,/^C,/E,/A,,/C,/ D,,D, z | z6 | %34
 z6 | z6 | z6 | z6 | z3 z z D | E-E/C/A,/F,/ DG, z | C>A,F,/D,/ B,/A,/B,/C/B,/A,/ | G,DE A,E=F | %42
 B,=FG C/B,/C/D/C/B,/ | A,EF B,FG | ^CGA D/C/D/E/D/C/ | B,>G,E,/^C,/ A,D, z | %46
 G,>E,^C,/A,,/ F,/E,/F,/A,/D,/F,/ | ^G,/F,/G,/B,/E,/G,/ ^A,/G,/A,/^C/F,/A,/ | %48
 B,/^A,/B,/D/F,/=A,/ ^G,/F,/G,/B,/E,/G,/ | A,/^G,/A,/C/E,/=G,/ F,/E,/F,/A,/D,/F,/ | %50
 G,/F,/G,/A,/B,/G,/ A,/G,/A,/B,/^C/A,/ | D/B,/EG,- G,/E,/F,/A,/G,/F,/ | %52
 E,/A,,/A,/G,/F,/E,/ D,A,B, | E,B,,G,, E,,B,C | F,D,E, =F,E,D, | C,>A,F,/A,/ B,,>G,E,/G,/ | %56
 A,,>F,D,/F,/ G,,>E,^C,/E,/ | F,,>D,B,,/D,/ E,,>^C,A,,/C,/ | D,,A,,B,, E,,B,,C, | F,,C,D, G,,D,E, | %60
 A,,/F,/G,/A,/E,/G,/ F,/E,/F,/A,/D,/F,/ | E,/D,/E,/G,/^C,/E,/ D,/C,/D,/F,/B,,/D,/ | %62
 G,,G, z z z F,- | F,/D,/E,/G,/A,,/^C,/ D,/E,/F,/A,/D,/F,/ | G,/E,/^C,/E,/A,,/C,/ D,,D, A, | %65
 D,G, z z/ G,/F,/E,/F,/D,/ | B,,/^C,/D,/4C,/4D,/4C,/4D,/4C,/4B,,/4C,/4 D,/C,/D,/E,/F,/D,/ | %67
 E,/D,/E,/F,/G,/E,/ F,D,G, | z/ D,/C,/B,,/C,/A,,/ B,,/E,/D,/^C,/D,/B,,/ | %69
 ^C,E,/4^D,/4E,/4D,/4E,/4D,/4C,/4D,/4 E,/F,/G,/4F,/4G,/4F,/4G,/4F,/4E,/4F,/4 | G,E, z A,D, z | %71
 G,,A,, z D,B,, z | z/ B,,/A,,/G,,/A,,/=F,,/ G,,A,,B,, | E,, z z z3 | A,D z z/ D/C/B,/C/A,/ | %75
 F,/^G,/A,/4G,/4A,/4G,/4A,/4G,/4F,/4G,/4 A,C[I:staff -1]E | ^DBE c/B/A/G/A/F/ | %77
[I:staff +1] z3 z z B, | C>A,F,/^D,/ B,E, z | A,>F,^D,/B,,/ G,/F,/G,/B,/D,/F,/ | E,B,C F,CD | %81
 G,DE A,B,C- | CB,A, ^G,A, z |[I:staff -1] F/^G/A/4G/4A/4G/4A/4G/4F/4G/4 A/G/A/B/c/A/ | %84
 B/A/B/^c/d/B/ cAd |[I:staff +1] z/[I:staff -1] A/G/F/G/E/ F/G/=F/E/F/D/ |[I:staff +1] z3 z z D, | %87
 E,>C,A,,/F,,/ D,G,, z | C,>A,,F,,/D,,/ B,,/A,,/B,,/D,/G,,/B,,/ | %89
 C,/B,,/C,/E,/A,,/C,/ D,/C,/D,/F,/B,,/D,/ | E,C,A,, D,F,D, | G,E,A, D,/E,/D,/C,/B,,/A,,/ | %92
 G,,C, z z/ C,/B,,/A,,/B,,/G,,/ | E,,/F,,/G,,/4F,,/4G,,/4F,,/4G,,/4F,,/4E,,/4F,,/4 G,,G,,,G,, | %94
 A,,/B,,/C,/4B,,/4C,/4B,,/4C,/4B,,/4A,,/4B,,/4 C,D,/4^C,/4D,/4C,/4D,/4C,/4B,,/4C,/4 | %95
 D,E,/4^D,/4E,/4D,/4E,/4D,/4^C,/4D,/4 E,/F,/G,/4F,/4G,/4F,/4G,/4F,/4E,/4F,/4 | %96
 G,[B,,,B,,][D,,D,] [G,,,G,,]2 A, | D,G, z z/ G,/F,/E,/F,/D,/ | %98
 B,,/^C,/D,/4C,/4D,/4C,/4D,/4C,/4B,,/4C,/4 D,/C,/D,/E,/F,/D,/ | E,/D,/E,/F,/G,/E,/ F,D,G, | %100
 z/ D,/C,/B,,/C,/A,,/ B,,/E,/D,/^C,/D,/B,,/ | %101
 ^C,E,/4^D,/4E,/4D,/4E,/4D,/4C,/4D,/4 E,/F,/G,/4F,/4G,/4F,/4G,/4F,/4E,/4F,/4 | G,E, z A,D, z | %103
 G,,A,, z D,B,, z | z/ B,,/A,,/G,,/A,,/=F,,/ G,,A,,B,, | E,, z z z3 | A,D z z/ D/C/B,/C/A,/ | %107
 F,/^G,/A,/4G,/4A,/4G,/4A,/4G,/4F,/4G,/4 A,C[I:staff -1]E | ^DBE c/B/A/G/A/F/ | %109
[I:staff +1] z3 z z B, | C>A,F,/^D,/ B,E, z | A,>F,^D,/B,,/ G,/F,/G,/B,/D,/F,/ | E,B,C F,CD | %113
 G,DE A,B,C- | CB,A, ^G,A, z |[I:staff -1] F/^G/A/4G/4A/4G/4A/4G/4F/4G/4 A/G/A/B/c/A/ | %116
 B/A/B/^c/d/B/ cAd |[I:staff +1] z/[I:staff -1] A/G/F/G/E/ F/G/=F/E/F/D/ |[I:staff +1] z3 z z D, | %119
 E,>C,A,,/F,,/ D,G,, z | C,>A,,F,,/D,,/ B,,/A,,/B,,/D,/G,,/B,,/ | %121
 C,/B,,/C,/E,/A,,/C,/ D,/C,/D,/F,/B,,/D,/ | E,C,A,, D,F,D, | G,E,A, D,/E,/D,/C,/B,,/A,,/ | %124
 G,,C, z z/ C,/B,,/A,,/B,,/G,,/ | E,,/F,,/G,,/4F,,/4G,,/4F,,/4G,,/4F,,/4E,,/4F,,/4 G,,G,,,G,, | %126
 A,,/B,,/C,/4B,,/4C,/4B,,/4C,/4B,,/4A,,/4B,,/4 C,D,/4^C,/4D,/4C,/4D,/4C,/4B,,/4C,/4 | %127
 D,E,/4^D,/4E,/4D,/4E,/4D,/4^C,/4D,/4 E,/F,/G,/4F,/4G,/4F,/4G,/4F,/4E,/4F,/4 | %128
 G,[B,,,B,,][D,,D,] !fermata![G,,,G,,]2 z |] %129
V:3
 x | x6 | c>AF/D/ B/A/B/c/B/A/ | GG,G- G/E/F/A/G/F/ | E^CA, DAB | EBc Fcd | Gec dAd- | %7
 d c2- c/A/B/d/c/B/ | A3- AGA | B/A/B/d/G/B/ c/B/c/e/A/c/ | d/c/d/=f/B/d/ eAB | %11
 c/B/c/e/A/c/ d/c/d/f/B/d/ | e/d/e/g/^c/e/ fBc | d/^c/d/e/B/d/ c/B/c/d/A/=c/ | B/A/B/^c/G/B/ A2 z | %15
 z z d- d^c z | z z c- cB z | z z B- BA z | z z F- FEA | B>GE/^C/ AD z | G>E^C/A,/ F/E/F/A/D/F/ | %21
 G3- G/F/G/B/E/G/ | A3 G3- | G/[I:staff +1]G,/ C2- C/A,/ B,2- | B,/G,/ A,2 A,/F,/ G,2- | %25
 G,/E,/ F,2 F,/D,/E,[I:staff -1] z | x6 | x6 | z3 z z d- | d^ce- edf- | f/d/eG- G/E/F/A/D/F/ | %31
 B^c z d A2- | A<GE- ED z | x6 | c>AF/D/ B/A/B/c/B/A/ | GG,G- G/E/F/A/G/F/ | E^CA, DAB | EBc Fcd | %38
 Gec dAd- | d c2- c/A/B/d/c/B/ | A3- AGA | B/A/B/d/G/B/ c/B/c/e/A/c/ | d/c/d/=f/B/d/ eAB | %43
 c/B/c/e/A/c/ d/c/d/f/B/d/ | e/d/e/g/^c/e/ fBc | d/^c/d/e/B/d/ c/B/c/d/A/=c/ | B/A/B/^c/G/B/ A2 z | %47
 z z d- d^c z | z z c- cB z | z z B- BA z | z z F- FEA | B>GE/^C/ AD z | G>E^C/A,/ F/E/F/A/D/F/ | %53
 G3- G/F/G/B/E/G/ | A3 G3- | G/[I:staff +1]G,/ C2- C/A,/ B,2- | B,/G,/ A,2 A,/F,/ G,2- | %57
 G,/E,/ F,2 F,/D,/E,[I:staff -1] z | x6 | x6 | z3 z z d- | d^ce- edf- | f/d/eG- G/E/F/A/D/F/ | %63
 B^c z d A2- | A<GE- ED x | x6 | x6 | x6 | x6 |[I:staff +1] A,/B,/A,/G,/A,/F,/ G,/B,/A,/B,/C/A,/ | %70
 B,/A,/B,/^C/D/B,/ CA,[I:staff -1]D | %71
 z/[I:staff +1] A,/G,/F,/G,/E,/ F,/^G,/A,/4G,/4A,/4G,/4A,/4G,/4F,/4G,/4 | %72
 A, F,2 E,[I:staff -1] z z | z/ E/D/C/D/B,/ CDE | x6 | x6 | x6 | B/A/G/F/G/E/ ^DFB- | %78
 BAc ^D[I:staff +1]B,[I:staff -1]E- | E F2[I:staff +1] B,[I:staff -1] z z | x6 | z3 z z z/ e/ | %82
 Ad z z/ d/c/B/c/A/ | x6 | x6 | x6 | E/F/G/4F/4G/4F/4G/4F/4E/4F/4 G2- G/F/- | %87
 F/EA/G/A/ FD[I:staff +1]G,- | G, A,2 D,[I:staff -1] z z | x6 | z/ B/A/G/A/E/ F z z | %91
 z/ A/G/F/G/E/ F2 D | E>[I:staff +1]CA,/F,/[I:staff -1] D[I:staff +1]G,[I:staff -1] z | %93
[I:staff +1] C>A,F,/D,/ B,3 |[I:staff -1] CD z[I:staff +1] G,E,[I:staff -1] z | %95
[I:staff +1] A,F,[I:staff -1] z z/ D/C/B,/C/A,/ | B,<D-D CB, z | x6 | x6 | x6 | x6 | %101
[I:staff +1] A,/B,/A,/G,/A,/F,/ G,/B,/A,/B,/C/A,/ | B,/A,/B,/^C/D/B,/ CA,[I:staff -1]D | %103
 z/[I:staff +1] A,/G,/F,/G,/E,/ F,/^G,/A,/4G,/4A,/4G,/4A,/4G,/4F,/4G,/4 | %104
 A, F,2 E,[I:staff -1] z z | z/ E/D/C/D/B,/ CDE | x6 | x6 | x6 | B/A/G/F/G/E/ ^DFB- | %110
 BAc ^D[I:staff +1]B,[I:staff -1]E- | E F2[I:staff +1] B,[I:staff -1] z z | x6 | z3 z z z/ e/ | %114
 Ad z z/ d/c/B/c/A/ | x6 | x6 | x6 | E/F/G/4F/4G/4F/4G/4F/4E/4F/4 G2- G/F/- | %119
 F/EA/G/A/ FD[I:staff +1]G,- | G, A,2 D,[I:staff -1] z z | x6 | z/ B/A/G/A/E/ F z z | %123
 z/ A/G/F/G/E/ F2 D | E>[I:staff +1]CA,/F,/[I:staff -1] D[I:staff +1]G,[I:staff -1] z | %125
[I:staff +1] C>A,F,/D,/ B,3 |[I:staff -1] CD z[I:staff +1] G,E,[I:staff -1] z | %127
[I:staff +1] A,F,[I:staff -1] z z/ D/C/B,/C/A,/ | B,<D-D CB, x |] %129

